X:5
T:Troy's Wedding
C:Colin Magee
R:jig
D:Nomos: Nomos
M:6/8
Q:400
Z:John Relph
N:a straightforward reading of the tune
K:D
|:"D"ABA d2c|"Em"BAB e2d|"A"cdc ABc|"D"dcd f2B|
"D"ABA d2c|"Em"BAB e2d|"A"cea gec|1 ABc "D"dcB:|2 ABc "D"def||
|:"G"gfg e2g|"D"fef d2f|"A"ecB ABc|"D"dcd f2f|
"G"gfg ege|"D"fdB A2d|"A"cea gec|1 "A"ABc "D"def:|2 "A"ABc "D"d2B||
|:"D"Aaa Bac|aad aea|faa "Em"gec|"A"Add f2B|
"D"Aaa Bac|aad aea|faa "Em"gec|1 "A"ABc "D"d2B:|2 "A"ABc "D"d3||
